; Translated for use with the SCARAdraw Machine
; File Quality: 2 mm
G17 (circles about xy plane)
G90 (absolute)
G0 Z10.000000
M3 (default spindle to clockwise)
G4 P2000.000000 (dwell 2000ms)
G01 Z0 F10.00
G00 X10.0415 Y88.6755
G00 Z10
G03 X10.5290 Y86.8428 I6.7690 J0.8192
G03 X11.6171 Y84.9435 I8.3687 J3.5330
G03 X12.4823 Y83.9237 I8.5788 J6.4011
G03 X13.4834 Y83.0036 I7.9729 J7.6703
G03 X13.9215 Y82.6601 I10.4176 J12.8360
G01 X13.9309 Y82.6648
G02 X14.1837 Y84.7295 I8.5557 J0.0000
G02 X14.6191 Y85.4325 I1.3121 J-0.3263
G02 X16.8033 Y85.7877 I1.3855 J-1.6266
G02 X18.5038 Y83.8669 I-1.0734 J-2.6634
G01 X18.8323 Y83.4038
G01 X19.1056 Y83.4566
G03 X19.2922 Y83.8162 I-1.5010 J1.0067
G03 X19.5997 Y84.7451 I-9.8452 J3.7753
G03 X19.9925 Y86.3714 I-22.1410 J6.2073
G03 X20.5278 Y89.3103 I-71.8362 J14.6040
G03 X20.6466 Y90.0611 I-128.7945 J20.7597
G01 X20.6488 Y90.0898
G01 X20.6387 Y90.1103
G03 X19.8793 Y90.6859 I-27.6476 J-35.6953
G03 X17.8607 Y92.0133 I-12.8027 J-17.2703
G03 X16.6712 Y92.5461 I-3.1390 J-5.4133
G03 X15.4883 Y92.3226 I-0.3885 J-1.1851
G01 X15.0387 Y91.1977
G02 X14.4530 Y90.0965 I-1.0828 J-0.1305
G02 X12.7750 Y90.0385 I-0.9008 J1.7591
G02 X11.1697 Y90.8806 I4.5212 J10.5701
G02 X9.4378 Y92.1402 I8.5495 J13.5753
G02 X9.2426 Y92.3146 I2.5030 J2.9983
G01 X9.2401 Y92.3291
G01 X9.2712 Y92.3253
G02 X9.9930 Y88.9153 I-201.1129 J-44.3564
G02 X10.0415 Y88.6762 I-414.6653 J-84.1235
G01 X10.0415 Y88.6755
G01 X10.0415 Y88.6755
G0 Z10.000000
M5 (stop moving)
M2 (end program)
